src/img/icons/twitter.svg

<svg width="26" height="22" viewBox="0 0 26 22" fill="none" xmlns="http://www.w3.org/2000/svg">
<path d="M26 2.65823C25.0439 3.08191 24.0167 3.36818 22.9369 3.49757C24.0385 2.83801 24.8836 1.79141 25.282 0.545574C24.2515 1.15704 23.1098 1.60133 21.8949 1.83951C20.9216 0.804361 19.5361 0.15625 18.0017 0.15625C15.0566 0.15625 12.6679 2.54487 12.6679 5.49228C12.6679 5.90909 12.716 6.31445 12.8053 6.70606C8.37047 6.48277 4.44173 4.35866 1.81036 1.13185C1.35233 1.92195 1.08896 2.83801 1.08896 3.81361C1.08896 5.66405 2.03136 7.29806 3.46155 8.2542C2.58672 8.22557 1.76456 7.98625 1.04545 7.58662V7.65532C1.04545 10.2398 2.88329 12.3959 5.32458 12.886C4.87572 13.0074 4.40509 13.0715 3.91958 13.0715C3.57606 13.0715 3.24055 13.0395 2.91535 12.9776C3.59438 15.096 5.5639 16.6396 7.89871 16.6808C6.07232 18.1121 3.77187 18.9652 1.27332 18.9652C0.842773 18.9652 0.417951 18.94 0 18.8908C2.36114 20.4057 5.16427 21.2874 8.17581 21.2874C17.9891 21.2874 23.3537 13.1597 23.3537 6.11062C23.3537 5.88161 23.348 5.6503 23.3377 5.42129C24.3797 4.66783 25.2843 3.73002 25.9977 2.66167L26 2.65823Z" fill="currentColor"/>
</svg>

<svg xmlns="http://www.w3.org/2000/svg" width="26" height="22" fill="none"><path fill="currentColor" d="M26 2.6582c-.9561.4237-1.9833.71-3.0631.8394 1.1016-.6596 1.9467-1.7062 2.3451-2.952a10.649 10.649 0 0 1-3.3871 1.294C20.9216.8043 19.5361.1562 18.0017.1562c-2.9451 0-5.3338 2.3886-5.3338 5.336 0 .4168.0481.8221.1374 1.2138-4.4348-.2233-8.3636-2.3474-10.995-5.5743a5.3318 5.3318 0 0 0-.7213 2.6818c0 1.8504.9424 3.4845 2.3725 4.4406a5.3218 5.3218 0 0 1-2.416-.6676v.0687c0 2.5845 1.8378 4.7406 4.279 5.2307a5.3721 5.3721 0 0 1-1.405.1855c-.3434 0-.679-.032-1.0042-.0939.679 2.1184 2.6486 3.662 4.9834 3.7032-1.8264 1.4313-4.1268 2.2844-6.6254 2.2844-.4305 0-.8553-.0252-1.2733-.0744 2.3611 1.5149 5.1643 2.3966 8.1758 2.3966 9.8133 0 15.1779-8.1277 15.1779-15.1768 0-.229-.0057-.4603-.016-.6893a10.8453 10.8453 0 0 0 2.66-2.7596L26 2.6582Z"/></svg>
